app/client/src/widgets/wds/WDSIconButtonWidget/icon.svg

<svg width="15" height="15" viewBox="0 0 15 15" fill="none" xmlns="http://www.w3.org/2000/svg">
<path d="M11.5 2.5H3.5C1.84315 2.5 0.5 3.84315 0.5 5.5V9.5C0.5 11.1569 1.84315 12.5 3.5 12.5H11.5C13.1569 12.5 14.5 11.1569 14.5 9.5V5.5C14.5 3.84315 13.1569 2.5 11.5 2.5Z" stroke="#364252" stroke-linecap="round" stroke-linejoin="round"/>
<path d="M0.5 10.5V10.5C0.5 12.1569 1.84315 13.5 3.5 13.5H11.5C13.1569 13.5 14.5 12.1569 14.5 10.5V10.5" stroke="#364252" stroke-linecap="square"/>
<path d="M5.5 7.5H9.5" stroke="#364252" stroke-linecap="round"/>
<path d="M7.5 9.5V5.5" stroke="#364252" stroke-linecap="round"/>
</svg>

<svg xmlns="http://www.w3.org/2000/svg" width="15" height="15" fill="none"><path stroke="#364252" stroke-linecap="round" stroke-linejoin="round" d="M11.5 2.5h-8a3 3 0 0 0-3 3v4a3 3 0 0 0 3 3h8a3 3 0 0 0 3-3v-4a3 3 0 0 0-3-3Z"/><path stroke="#364252" stroke-linecap="square" d="M.5 10.5v0a3 3 0 0 0 3 3h8a3 3 0 0 0 3-3v0"/><path stroke="#364252" stroke-linecap="round" d="M5.5 7.5h4M7.5 9.5v-4"/></svg>
